dist/svg/shield-check-fill.svg

<svg xmlns="http://www.w3.org/2000/svg" viewBox="0 0 24 24"><path d="M11.445 2.462c-.292.063-5.741 2.226-6.225 2.471-.553.28-1.081.88-1.298 1.478-.164.453-.169.551-.152 3.169.017 2.781.021 2.833.291 3.886.351 1.371 1.056 2.758 2.026 3.983.445.563 1.627 1.735 2.233 2.215 1.033.818 2.262 1.57 2.94 1.798.453.152.986.152 1.437.001 1.102-.372 3.271-1.935 4.454-3.212 1.693-1.826 2.563-3.481 2.976-5.66.08-.424.086-.605.102-2.991.019-2.661.014-2.752-.159-3.2-.239-.621-.736-1.187-1.29-1.467-.514-.26-5.937-2.408-6.243-2.473a2.8 2.8 0 0 0-1.092.002m4.92 5.881c.206.106.395.42.395.657 0 .292-.015.308-2.433 2.733-1.295 1.298-2.414 2.387-2.495 2.43a.78.78 0 0 1-.664 0c-.081-.042-.754-.686-1.495-1.43-1.131-1.137-1.353-1.379-1.389-1.513-.054-.198-.054-.242-.002-.429a.8.8 0 0 1 .373-.459c.161-.084.528-.084.685-.001.066.035.579.524 1.14 1.086l1.019 1.023 2.061-2.058c1.536-1.534 2.091-2.064 2.18-2.083.066-.014.138-.032.16-.04.068-.024.354.028.465.084"/></svg>

<svg fill="none" xmlns="http://www.w3.org/2000/svg" viewBox="0 0 24 24"><path d="M11.445 2.462 C 11.153 2.525,5.704 4.688,5.220 4.933 C 4.667 5.213,4.139 5.813,3.922 6.411 C 3.758 6.864,3.753 6.962,3.770 9.580 C 3.787 12.361,3.791 12.413,4.061 13.466 C 4.412 14.837,5.117 16.224,6.087 17.449 C 6.532 18.012,7.714 19.184,8.320 19.664 C 9.353 20.482,10.582 21.234,11.260 21.462 C 11.713 21.614,12.246 21.614,12.697 21.463 C 13.799 21.091,15.968 19.528,17.151 18.251 C 18.844 16.425,19.714 14.770,20.127 12.591 C 20.207 12.167,20.213 11.986,20.229 9.600 C 20.248 6.939,20.243 6.848,20.070 6.400 C 19.831 5.779,19.334 5.213,18.780 4.933 C 18.266 4.673,12.843 2.525,12.537 2.460 C 12.196 2.388,11.782 2.388,11.445 2.462 M16.365 8.343 C 16.571 8.449,16.760 8.763,16.760 9.000 C 16.760 9.292,16.745 9.308,14.327 11.733 C 13.032 13.031,11.913 14.120,11.832 14.163 C 11.641 14.262,11.359 14.262,11.168 14.163 C 11.087 14.121,10.414 13.477,9.673 12.733 C 8.542 11.596,8.320 11.354,8.284 11.220 C 8.230 11.022,8.230 10.978,8.282 10.791 C 8.332 10.610,8.487 10.419,8.655 10.332 C 8.816 10.248,9.183 10.248,9.340 10.331 C 9.406 10.366,9.919 10.855,10.480 11.417 L 11.499 12.440 13.560 10.382 C 15.096 8.848,15.651 8.318,15.740 8.299 C 15.806 8.285,15.878 8.267,15.900 8.259 C 15.968 8.235,16.254 8.287,16.365 8.343 " stroke="none" fill-rule="evenodd"/></svg>
